X:1
T:Little Dukes -- Reel
R:reel
B:Ryan's Mammoth Collection
N: 305
Z: Contributed by Ray Davies,  ray:davies99.freeserve.co.uk
M:C|
L:1/8
K:G
vkG2g"0"e dBAG | .F(DA)(D B)(DA).D | vkG2g"0"e dBAG |\
 .F(GA)(c B).GG2:|
|:v.g(ed)(B c).A(Aa) | .f(da)(d b)(da).d |\
 .g(ed)(B c).A.A(c | d)(fg)(a b).gg2:|
